src/SVGs/Book.svg

<?xml version="1.0" encoding="UTF-8"?>
<!-- Created with Inkscape (http://www.inkscape.org/) -->
<svg version="1.1" viewBox="0 0 83.892 77.9" xmlns="http://www.w3.org/2000/svg">
  <g transform="translate(-52.243 -111.33)">
    <g transform="matrix(1.9974 0 0 1.9974 30.271 85.362)" stroke-width=".13246">
      <g stroke-width=".13246">
        <g stroke-width=".017546">
          <path
            d="m52 17h-40c-0.6 0-1 0.4-1 1v30c0 0.6 0.4 1 1 1h14.3c1 0 1.9 0.4 2.4 1.2 0.7 1.1 1.9 1.8 3.3 1.8s2.6-0.7 3.3-1.8c0.5-0.8 1.5-1.2 2.4-1.2h14.3c0.6 0 1-0.4 1-1v-30c0-0.6-0.4-1-1-1z"
            fill="#424c72" />
          <path d="m14 28v18h16c1.1 0 2 0.9 2 2 0-1.1 0.9-2 2-2h16v-18z" fill="#e4e7ef" />
          <path d="m35 13c-1.7 0-3 1.3-3 3 0-1.7-1.3-3-3-3h-15v31h16c1.1 0 2 0.9 2 2 0-1.1 0.9-2 2-2h16v-31z"
            fill="#fff" />
          <rect x="18" y="16" width="4" height="7" fill="#57d1f7" />
          <g fill="#e4e7ef">
            <path d="m29 26.5h-11c-0.3 0-0.5-0.2-0.5-0.5s0.2-0.5 0.5-0.5h11c0.3 0 0.5 0.2 0.5 0.5s-0.2 0.5-0.5 0.5z" />
            <path
              d="m29 23.5h-4.4c-0.3 0-0.5-0.2-0.5-0.5s0.2-0.5 0.5-0.5h4.4c0.3 0 0.5 0.2 0.5 0.5s-0.2 0.5-0.5 0.5z" />
            <path
              d="m29 20.5h-4.4c-0.3 0-0.5-0.2-0.5-0.5s0.2-0.5 0.5-0.5h4.4c0.3 0 0.5 0.2 0.5 0.5s-0.2 0.5-0.5 0.5z" />
            <path
              d="m29 17.5h-4.4c-0.3 0-0.5-0.2-0.5-0.5s0.2-0.5 0.5-0.5h4.4c0.3 0 0.5 0.2 0.5 0.5s-0.2 0.5-0.5 0.5z" />
            <path d="m29 29.5h-11c-0.3 0-0.5-0.2-0.5-0.5s0.2-0.5 0.5-0.5h11c0.3 0 0.5 0.2 0.5 0.5s-0.2 0.5-0.5 0.5z" />
            <path d="m29 32.5h-11c-0.3 0-0.5-0.2-0.5-0.5s0.2-0.5 0.5-0.5h11c0.3 0 0.5 0.2 0.5 0.5s-0.2 0.5-0.5 0.5z" />
            <path d="m29 35.5h-11c-0.3 0-0.5-0.2-0.5-0.5s0.2-0.5 0.5-0.5h11c0.3 0 0.5 0.2 0.5 0.5s-0.2 0.5-0.5 0.5z" />
            <path d="m29 38.5h-11c-0.3 0-0.5-0.2-0.5-0.5s0.2-0.5 0.5-0.5h11c0.3 0 0.5 0.2 0.5 0.5s-0.2 0.5-0.5 0.5z" />
            <path d="m29 41.5h-11c-0.3 0-0.5-0.2-0.5-0.5s0.2-0.5 0.5-0.5h11c0.3 0 0.5 0.2 0.5 0.5s-0.2 0.5-0.5 0.5z" />
            <path d="m46 26.5h-11c-0.3 0-0.5-0.2-0.5-0.5s0.2-0.5 0.5-0.5h11c0.3 0 0.5 0.2 0.5 0.5s-0.2 0.5-0.5 0.5z" />
            <path d="m46 29.5h-11c-0.3 0-0.5-0.2-0.5-0.5s0.2-0.5 0.5-0.5h11c0.3 0 0.5 0.2 0.5 0.5s-0.2 0.5-0.5 0.5z" />
            <path d="m46 20.5h-11c-0.3 0-0.5-0.2-0.5-0.5s0.2-0.5 0.5-0.5h11c0.3 0 0.5 0.2 0.5 0.5s-0.2 0.5-0.5 0.5z" />
            <path d="m46 17.5h-11c-0.3 0-0.5-0.2-0.5-0.5s0.2-0.5 0.5-0.5h11c0.3 0 0.5 0.2 0.5 0.5s-0.2 0.5-0.5 0.5z" />
            <path d="m46 23.5h-11c-0.3 0-0.5-0.2-0.5-0.5s0.2-0.5 0.5-0.5h11c0.3 0 0.5 0.2 0.5 0.5s-0.2 0.5-0.5 0.5z" />
            <path d="m46 32.5h-11c-0.3 0-0.5-0.2-0.5-0.5s0.2-0.5 0.5-0.5h11c0.3 0 0.5 0.2 0.5 0.5s-0.2 0.5-0.5 0.5z" />
            <path d="m46 35.5h-11c-0.3 0-0.5-0.2-0.5-0.5s0.2-0.5 0.5-0.5h11c0.3 0 0.5 0.2 0.5 0.5s-0.2 0.5-0.5 0.5z" />
            <path d="m46 38.5h-11c-0.3 0-0.5-0.2-0.5-0.5s0.2-0.5 0.5-0.5h11c0.3 0 0.5 0.2 0.5 0.5s-0.2 0.5-0.5 0.5z" />
            <path d="m46 41.5h-11c-0.3 0-0.5-0.2-0.5-0.5s0.2-0.5 0.5-0.5h11c0.3 0 0.5 0.2 0.5 0.5s-0.2 0.5-0.5 0.5z" />
          </g>
          <polygon points="45 36 43 35 41 36 41 13 45 13" fill="#f25353" />
        </g>
      </g>
    </g>
  </g>
</svg>

<?xml version="1.0" encoding="utf-8"?>
<!-- Generator: Adobe Illustrator 18.0.0, SVG Export Plug-In . SVG Version: 6.00 Build 0)  -->
<!DOCTYPE svg PUBLIC "-//W3C//DTD SVG 1.1//EN" "http://www.w3.org/Graphics/SVG/1.1/DTD/svg11.dtd">
<svg version="1.1" id="Layer_1" xmlns="http://www.w3.org/2000/svg" xmlns:xlink="http://www.w3.org/1999/xlink" x="0px"
	y="0px" viewBox="0 10 64 64" enable-background="new 0 0 64 64" xml:space="preserve">
	<g>
		<g>
			<g>
				<path fill="#424C72" d="M52,17H12c-0.6,0-1,0.4-1,1v30c0,0.6,0.4,1,1,1h14.3c1,0,1.9,0.4,2.4,1.2c0.7,1.1,1.9,1.8,3.3,1.8
				s2.6-0.7,3.3-1.8c0.5-0.8,1.5-1.2,2.4-1.2H52c0.6,0,1-0.4,1-1V18C53,17.4,52.6,17,52,17z" />
			</g>
		</g>
		<g>
			<g>
				<path fill="#E4E7EF" d="M14,28v18h16c1.1,0,2,0.9,2,2c0-1.1,0.9-2,2-2h16V28H14z" />
			</g>
		</g>
		<g>
			<g>
				<path fill="#FFFFFF"
					d="M35,13c-1.7,0-3,1.3-3,3c0-1.7-1.3-3-3-3H14v31h16c1.1,0,2,0.9,2,2c0-1.1,0.9-2,2-2h16V13H35z" />
			</g>
		</g>
		<g>
			<g>
				<rect x="18" y="16" fill="#57D1F7" width="4" height="7" />
			</g>
		</g>
		<g>
			<g>
				<path fill="#E4E7EF"
					d="M29,26.5H18c-0.3,0-0.5-0.2-0.5-0.5s0.2-0.5,0.5-0.5h11c0.3,0,0.5,0.2,0.5,0.5S29.3,26.5,29,26.5z" />
			</g>
		</g>
		<g>
			<g>
				<path fill="#E4E7EF"
					d="M29,23.5h-4.4c-0.3,0-0.5-0.2-0.5-0.5s0.2-0.5,0.5-0.5H29c0.3,0,0.5,0.2,0.5,0.5S29.3,23.5,29,23.5z" />
			</g>
		</g>
		<g>
			<g>
				<path fill="#E4E7EF"
					d="M29,20.5h-4.4c-0.3,0-0.5-0.2-0.5-0.5s0.2-0.5,0.5-0.5H29c0.3,0,0.5,0.2,0.5,0.5S29.3,20.5,29,20.5z" />
			</g>
		</g>
		<g>
			<g>
				<path fill="#E4E7EF"
					d="M29,17.5h-4.4c-0.3,0-0.5-0.2-0.5-0.5s0.2-0.5,0.5-0.5H29c0.3,0,0.5,0.2,0.5,0.5S29.3,17.5,29,17.5z" />
			</g>
		</g>
		<g>
			<g>
				<path fill="#E4E7EF"
					d="M29,29.5H18c-0.3,0-0.5-0.2-0.5-0.5s0.2-0.5,0.5-0.5h11c0.3,0,0.5,0.2,0.5,0.5S29.3,29.5,29,29.5z" />
			</g>
		</g>
		<g>
			<g>
				<path fill="#E4E7EF"
					d="M29,32.5H18c-0.3,0-0.5-0.2-0.5-0.5s0.2-0.5,0.5-0.5h11c0.3,0,0.5,0.2,0.5,0.5S29.3,32.5,29,32.5z" />
			</g>
		</g>
		<g>
			<g>
				<path fill="#E4E7EF"
					d="M29,35.5H18c-0.3,0-0.5-0.2-0.5-0.5s0.2-0.5,0.5-0.5h11c0.3,0,0.5,0.2,0.5,0.5S29.3,35.5,29,35.5z" />
			</g>
		</g>
		<g>
			<g>
				<path fill="#E4E7EF"
					d="M29,38.5H18c-0.3,0-0.5-0.2-0.5-0.5s0.2-0.5,0.5-0.5h11c0.3,0,0.5,0.2,0.5,0.5S29.3,38.5,29,38.5z" />
			</g>
		</g>
		<g>
			<g>
				<path fill="#E4E7EF"
					d="M29,41.5H18c-0.3,0-0.5-0.2-0.5-0.5s0.2-0.5,0.5-0.5h11c0.3,0,0.5,0.2,0.5,0.5S29.3,41.5,29,41.5z" />
			</g>
		</g>
		<g>
			<g>
				<path fill="#E4E7EF"
					d="M46,26.5H35c-0.3,0-0.5-0.2-0.5-0.5s0.2-0.5,0.5-0.5h11c0.3,0,0.5,0.2,0.5,0.5S46.3,26.5,46,26.5z" />
			</g>
		</g>
		<g>
			<g>
				<path fill="#E4E7EF"
					d="M46,29.5H35c-0.3,0-0.5-0.2-0.5-0.5s0.2-0.5,0.5-0.5h11c0.3,0,0.5,0.2,0.5,0.5S46.3,29.5,46,29.5z" />
			</g>
		</g>
		<g>
			<g>
				<path fill="#E4E7EF"
					d="M46,20.5H35c-0.3,0-0.5-0.2-0.5-0.5s0.2-0.5,0.5-0.5h11c0.3,0,0.5,0.2,0.5,0.5S46.3,20.5,46,20.5z" />
			</g>
		</g>
		<g>
			<g>
				<path fill="#E4E7EF"
					d="M46,17.5H35c-0.3,0-0.5-0.2-0.5-0.5s0.2-0.5,0.5-0.5h11c0.3,0,0.5,0.2,0.5,0.5S46.3,17.5,46,17.5z" />
			</g>
		</g>
		<g>
			<g>
				<path fill="#E4E7EF"
					d="M46,23.5H35c-0.3,0-0.5-0.2-0.5-0.5s0.2-0.5,0.5-0.5h11c0.3,0,0.5,0.2,0.5,0.5S46.3,23.5,46,23.5z" />
			</g>
		</g>
		<g>
			<g>
				<path fill="#E4E7EF"
					d="M46,32.5H35c-0.3,0-0.5-0.2-0.5-0.5s0.2-0.5,0.5-0.5h11c0.3,0,0.5,0.2,0.5,0.5S46.3,32.5,46,32.5z" />
			</g>
		</g>
		<g>
			<g>
				<path fill="#E4E7EF"
					d="M46,35.5H35c-0.3,0-0.5-0.2-0.5-0.5s0.2-0.5,0.5-0.5h11c0.3,0,0.5,0.2,0.5,0.5S46.3,35.5,46,35.5z" />
			</g>
		</g>
		<g>
			<g>
				<path fill="#E4E7EF"
					d="M46,38.5H35c-0.3,0-0.5-0.2-0.5-0.5s0.2-0.5,0.5-0.5h11c0.3,0,0.5,0.2,0.5,0.5S46.3,38.5,46,38.5z" />
			</g>
		</g>
		<g>
			<g>
				<path fill="#E4E7EF"
					d="M46,41.5H35c-0.3,0-0.5-0.2-0.5-0.5s0.2-0.5,0.5-0.5h11c0.3,0,0.5,0.2,0.5,0.5S46.3,41.5,46,41.5z" />
			</g>
		</g>
		<g>
			<g>
				<polygon fill="#F25353" points="45,36 43,35 41,36 41,13 45,13 			" />
			</g>
		</g>
	</g>
</svg>
